!!!SOCIAL_FUNCTION:	cremation legend songs
!!!PDT:	1932
!!!OTL: No_6_The_Wonder-boy_and_His_Father_(a).krn
!!!REG: Southwest
!!!LANG: Non-Tone
!!!LING_GROUP: Yuman-Cochimi
**kern
*staff1
=1-
*clefF4
*k[f#c#g#]
*M2/4
4r
8r
8F#\
=2!|:
4A\
16A\LL
16F#\J
8F#\J
=3
8A\L
8F#\J
8F#\
16r
16F#\
=4
8F#\
16r
16F#\
8.F#\L
16F#\Jk
=5||
*M3/4
8F#\L
8F#\J
8C#/L
8F#/J
8r
8F#\
=6||
*M2/4
4A\
16A\LL
16F#\J
8F#\J
=7
8A\L
8F#\J
8F#\
16r
16F#\
=8
8F#\
16r
16F#\
4F#\
=9||
*M3/4
8F#\L
8F#\J
8C#/L
8F#/J
8F#\
16r
16F#\
=10||
*M2/4
8F#\
16r
16F#\
8F#\L
8F#\J
=11||
*M3/4
8F#\L
8F#\J
8C#/L
8F#/J
8r
8F#\
=12||
*M2/4
8F#\
8r
8.F#\L
16G#\Jk
=13
4F#\
8F#\L
8F#\J
=14
16C#\LL
16F#\J
8F#\J
8F#\
16r
16G#\
=15
4F#\
8.F#\L
16G#\Jk
=16
4F#\
8F#\L
8F#\J
=17||
*M3/4
16C#\LL
16F#\J
8F#\J
8F#\
8r
8F#\L
16F#\Jk
16r
=18||
*M2/4
12F#\L
12F#\
12F#\J
12F#\L
12F#\
12F#\J
=19
8F#\L
8F#\J
8r
8F#\
=20
8.F#\L
16F#\Jk
8F#\
8r
=21
8F#\L
8F#\J
4F#\
=22||
=
*M3/4
8F#\L
8F#\J
8C#/L
8F#/J
8r
8F#\
=23:|!
*M2/4
8F#\L
8F#\J
8C#/L
8F#/J
==
*-
